src/config/img/Profile.svg

<svg width="125" height="146" viewBox="0 0 125 146" fill="none" xmlns="http://www.w3.org/2000/svg">
<path d="M61.7963 78.6328C61.9465 78.6328 62.0967 78.6328 62.277 78.6328C62.3371 78.6328 62.3971 78.6328 62.4572 78.6328C62.5474 78.6328 62.6675 78.6328 62.7576 78.6328C71.5599 78.4826 78.6799 75.3883 83.9372 69.47C95.5033 56.4318 93.5807 34.0807 93.3704 31.9477C92.6193 15.9353 85.0488 8.27465 78.8 4.69966C74.1435 2.02593 68.7059 0.583913 62.6375 0.463745H62.4272C62.3971 0.463745 62.3371 0.463745 62.307 0.463745H62.1268C58.7921 0.463745 52.243 1.0045 45.9642 4.57949C39.6554 8.15448 31.9647 15.8152 31.2136 31.9477C31.0033 34.0807 29.0807 56.4318 40.6468 69.47C45.8741 75.3883 52.994 78.4826 61.7963 78.6328ZM39.2348 32.6987C39.2348 32.6086 39.2649 32.5185 39.2649 32.4584C40.2562 10.9183 55.5476 8.60511 62.0967 8.60511H62.2169C62.277 8.60511 62.3671 8.60511 62.4572 8.60511C70.5685 8.78536 84.3578 12.09 85.2891 32.4584C85.2891 32.5485 85.2891 32.6386 85.3191 32.6987C85.3492 32.909 87.4521 53.3375 77.8988 64.0925C74.1135 68.3585 69.0665 70.4614 62.4272 70.5215C62.3671 70.5215 62.3371 70.5215 62.277 70.5215C62.2169 70.5215 62.1869 70.5215 62.1268 70.5215C55.5175 70.4614 50.4405 68.3585 46.6852 64.0925C37.1619 53.3976 39.2048 32.879 39.2348 32.6987Z" fill="#1DA1AF"/>
<path d="M124.013 115.705C124.013 115.674 124.013 115.644 124.013 115.614C124.013 115.374 123.983 115.134 123.983 114.863C123.803 108.915 123.413 95.0057 110.374 90.5594C110.284 90.5294 110.164 90.4994 110.074 90.4693C96.5251 87.0145 85.2593 79.2036 85.1392 79.1135C83.3066 77.8217 80.7831 78.2723 79.4913 80.1049C78.1995 81.9374 78.6501 84.4609 80.4827 85.7527C80.9934 86.1132 92.9501 94.4349 107.911 98.2802C114.911 100.774 115.692 108.254 115.902 115.104C115.902 115.374 115.902 115.614 115.932 115.855C115.962 118.559 115.782 122.734 115.301 125.138C110.434 127.902 91.3578 137.455 62.3373 137.455C33.437 137.455 14.2402 127.872 9.34338 125.108C8.86271 122.704 8.65242 118.528 8.7125 115.825C8.7125 115.584 8.74254 115.344 8.74254 115.074C8.95284 108.224 9.73393 100.744 16.7337 98.2502C31.6946 94.4048 43.6513 86.0532 44.162 85.7227C45.9945 84.4309 46.4452 81.9074 45.1534 80.0748C43.8616 78.2423 41.338 77.7916 39.5055 79.0834C39.3853 79.1736 28.1797 86.9845 14.5707 90.4393C14.4505 90.4693 14.3604 90.4994 14.2703 90.5294C1.23206 95.0057 0.841517 108.915 0.661266 114.833C0.661266 115.104 0.661265 115.344 0.631223 115.584C0.631223 115.614 0.631223 115.644 0.631223 115.674C0.601181 117.237 0.57114 125.258 2.16336 129.283C2.46378 130.065 3.00454 130.726 3.72554 131.176C4.6268 131.777 26.2269 145.536 62.3674 145.536C98.5078 145.536 120.108 131.747 121.009 131.176C121.7 130.726 122.271 130.065 122.571 129.283C124.074 125.288 124.043 117.267 124.013 115.705Z" fill="#1DA1AF"/>
</svg>

<svg width="125" height="146" fill="none" xmlns="http://www.w3.org/2000/svg"><path d="M61.796 78.633H62.757c8.803-.15 15.923-3.245 21.18-9.163 11.566-13.038 9.644-35.39 9.433-37.522C92.62 15.935 85.05 8.275 78.8 4.7 74.144 2.026 68.706.584 62.638.464H62.127c-3.335 0-9.884.54-16.163 4.115-6.309 3.575-14 11.236-14.75 27.369-.21 2.133-2.133 24.484 9.433 37.522 5.227 5.918 12.347 9.013 21.15 9.163zM39.235 32.699c0-.09.03-.18.03-.24.991-21.54 16.283-23.854 22.832-23.854h.36c8.111.18 21.9 3.485 22.832 23.853 0 .09 0 .18.03.24.03.211 2.133 20.64-7.42 31.395-3.785 4.266-8.832 6.368-15.472 6.428h-.3c-6.61-.06-11.687-2.162-15.442-6.428-9.523-10.695-7.48-31.214-7.45-31.394z" fill="#1DA1AF"/><path d="M124.013 115.705v-.091c0-.24-.03-.48-.03-.751-.18-5.948-.57-19.857-13.609-24.304-.09-.03-.21-.06-.3-.09-13.549-3.454-24.815-11.265-24.935-11.355-1.832-1.292-4.356-.842-5.648.99-1.291 1.833-.84 4.357.992 5.649.51.36 12.467 8.682 27.428 12.527 7 2.494 7.781 9.974 7.991 16.824 0 .27 0 .51.03.751.03 2.704-.15 6.879-.631 9.283-4.867 2.764-23.943 12.317-52.964 12.317-28.9 0-48.097-9.583-52.994-12.347-.48-2.404-.69-6.58-.63-9.283 0-.241.03-.481.03-.751.21-6.85.99-14.33 7.99-16.824 14.962-3.845 26.918-12.197 27.429-12.527 1.833-1.292 2.283-3.816.991-5.648-1.291-1.833-3.815-2.283-5.648-.992-.12.09-11.325 7.901-24.934 11.356-.12.03-.21.06-.3.09C1.231 95.006.84 108.915.66 114.833c0 .271 0 .511-.03.751v.09c-.03 1.563-.06 9.584 1.532 13.609.3.782.842 1.443 1.563 1.893.9.601 22.5 14.36 58.641 14.36 36.14 0 57.741-13.789 58.642-14.36.691-.45 1.262-1.111 1.562-1.893 1.503-3.995 1.472-12.016 1.442-13.578z" fill="#1DA1AF"/></svg>
